X: 2
T:Auntie Alice (Brought Us This)
M:4/4
L:1/8
Q:120
C:Hogsnort Rupert's Original Flagon Band
K:A
"Intro:""A"z2"E"z2"A"z4|:"A"z2"E"z2"A"z2CD|
"A"EczBz2AA|"D"BA3F3F|"E"E2F2DE3|"A"C4-CzCD|!
E2c2BA2z|"D"BA3F3F|"E"E2E2FG3|"A"A4z2CD|
EczBz2AA|"D"BA3F2zF|!
"E"E2F2DE3|"A"C4-CzCD|
E2c2BA3|"D"BA3F2zF|"E"E2E2FG3|"A"A4z2cc|!
"F#"c4-c4|"B"z2z2"E"z4|
"A"EC EC EA3|c6z2|"D"AG AG AF3|"A"E6z2|
czezczz2|!
czezczz2|BBBB BcBA|zGA B-B4|
"A"EC EC EA3|c6z2|"D"AG AG AF3|!
"E"E4zAAB|
"A"czczcc3|"A"c"G"B3"F#"^A3=F|
"B"^F=A FA "E"cc3|"A"A2"E"z2"A"z4:||
